icon/pk/area-map.svg

<svg width="48" height="48" fill="none" xmlns="http://www.w3.org/2000/svg"><path d="m18 24-6 9-8-4.5V42h40V15l-7 8-6-5-7 8-6-2Z" fill="#2F88FF" stroke="#000" stroke-width="4" stroke-linecap="round" stroke-linejoin="round"/><path d="M4 28.5V17l7 6 5.5-8 6 3L31 9l5.5 4.5L44 6v9.5" stroke="#000" stroke-width="4" stroke-linecap="round" stroke-linejoin="round"/></svg>

<svg viewBox="0 0 48 48" fill="none" xmlns="http://www.w3.org/2000/svg" height="1em" width="1em">
  <path d="M18 24L12 33L4 28.5V42H44V15L37 23L31 18L24 26L18 24Z" fill="#2F88FF" stroke="black" stroke-width="4" stroke-linecap="round" stroke-linejoin="round"/>
  <path d="M4 28.5V17L11 23L16.5 15L22.5 18L31 9L36.5 13.5L44 6V15.5" stroke="black" stroke-width="4" stroke-linecap="round" stroke-linejoin="round"/>
</svg>
